X:314
T: BLUEHE LIEBES VEILCHEN DAS ICH SELBST ERZOG
N: B0371A
O: Europa, Mitteleuropa, Deutschland
R: Liebes - Lied, Liebes - Lust
M: 6/8
L: 1/16
K: G
 | G4B2G4B2 | d4c2A4z2 |
B2c2A2G4BA | G6z6 |
G4B2G4B2 | d4c2A4z2 |
B2c2A2G4BA | G6z6 |
d4d2d4BG | F4GAG4z2 |
A2B2c2B2G2d2 | d4B2A4z2 |
G4B2G4B2 | d6c4z2 |
B2c2A2G4BA | G6z6

@@@ Tune index: 2117
